X:1
T:G. F. Root
T:Glory to Him who Loved Us
%%score { ( 1 2 ) | ( 3 4 ) }
L:1/8
M:4/4
K:F
V:1 treble 
V:2 treble 
V:3 bass 
V:4 bass 
V:1
 C2 | F2 A2 c3 =B | d2 c2 A3 F | A2 G2 E2 C2 | F6 C2 | F2 A2 c3 =B | d2 c2 A3 f | e2 d2 c2 =B2 | %8
 c6 z2 | c2 A>B c2 d2 | c4 A2 c2 | d2 B2 f2 d2 | c6 c2 | d2 c2 B2 G2 | c2 B2 A2 f2 | c2 d2 A2 G2 | %16
 F6 |] %17
V:2
 C2 | F2 F2 F3 F | F2 F2 F3 C | C2 C2 C2 C2 | C6 C2 | F2 F2 F3 F | F2 F2 F3 A | G2 F2 E2 D2 | %8
 E6 z2 | F2 F>F F2 F2 | F4 F2 F2 | F2 F2 F2 F2 | F6 F2 | ^F2 F2 G2 G2 | E2 E2 F2 A2 | F2 F2 F2 E2 | %16
 F6 |] %17
V:3
 C,2 | F,2 F,2 A,3 ^G, | B,2 A,2 C3 A, | C2 B,2 B,2 B,2 | A,6 C,2 | F,2 F,2 A,3 ^G, | %6
 B,2 A,2 C3 C | C2 G,2 G,2 G,2 | G,6 z2 | A,2 C>B, A,2 B,2 | A,4 C2 A,2 | B,2 D2 D2 B,2 | A,6 A,2 | %13
 A,2 D2 D2 B,2 | G,2 C2 C2 C2 | F2 D2 C2 B,2 | A,6 |] %17
V:4
 C,2 | F,2 F,2 F,3 F, | F,2 F,2 F,3 F, | C,2 C,2 C,2 C,2 | F,6 C,2 | F,2 F,2 F,3 F, | %6
 F,2 F,2 F,3 F, | G,2 G,2 G,2 G,2 | C,6 z2 | F,2 F,>F, F,2 F,2 | F,4 F,2 F,2 | B,,2 B,,2 B,,2 D,2 | %12
 F,6 F,2 | D,2 D,2 G,2 G,2 | C,2 C,2 F,2 F,2 | A,2 B,2 C2 C,2 | F,6 |] %17

